!!!OTL: HOCH VOM DACHSTEIN AN WO DER AAR NOCH HAUST
!!!ARE: Europa, Mitteleuropa, Oesterreich, Steiermark
!!!SCT: B0036
!!!YEM: Copyright 1995, estate of Helmut Schaffrath.
**kern
*ICvox
*Ivox
*M3/4
*k[b-]
*F:
{8f
8g
=1
8a
8c
4a
8g
8f
=2
8g
8d
4g}
{8b-
8dd
=3
8cc
8g
8cc
8dd
8g
8b-
=4
2a}
{8f
8g
=5
8a
8c
4a
8g
8f
=6
8e
8g
4ee}
{8dd
8cc
=7
8bn
8cc
8dd
8ee
8ff
8bn
=8
2cc}
{8cc
8cc#
=9
8dd
8b-
4ff
8ee
8dd
=10
8.dd
16cc
4a}
{8cc
8cc#
=11
8ee
8dd
8cc
8dd
8b-
8g
=12
2a}
{8cc
8cc#
=13
8dd
8b-
4ff
8ee
8dd
=14
8bn
8cc
4aa}
{8gg
8ff
=15
8ee
8cc
8dd
8cc
8b-
8e
=16
4f
4r}
==
!!!AGN: politisch, national, Vaterlands - Lied
!!!ONB: ESAC (Essen Associative Code) Database: BOEHME
!!!AMT: simple triple
!!!AIN: vox
!!!EED: Helmut Schaffrath
!!!EEV: 1.0
*-
